Papirus/24x24/apps/org.gabmus.gnome-feeds.svg

<svg xmlns="http://www.w3.org/2000/svg" width="24" height="24" version="1">
 <flowRoot style="font-size:40px;line-height:1.25;letter-spacing:0px;word-spacing:0px" transform="translate(0,-24)" xml:space="preserve">
  <flowRegion>
   <rect width="165" height="615" x="1305" y="-877"/>
  </flowRegion>
  <flowPara/>
 </flowRoot>
 <flowRoot style="font-size:40px;line-height:1.25;letter-spacing:0px;word-spacing:0px" transform="translate(0,-24)" xml:space="preserve">
  <flowRegion>
   <rect width="3865" height="2420" x="700" y="-1422"/>
  </flowRegion>
  <flowPara/>
 </flowRoot>
 <flowRoot style="font-size:40px;line-height:1.25;letter-spacing:0px;word-spacing:0px" transform="translate(0,-24)" xml:space="preserve">
  <flowRegion>
   <rect width="1700" height="1645" x="1030" y="-1062"/>
  </flowRegion>
  <flowPara/>
 </flowRoot>
 <flowRoot style="font-size:40px;line-height:1.25;letter-spacing:0px;word-spacing:0px" transform="translate(0,-24)" xml:space="preserve">
  <flowRegion>
   <rect width="1575" height="1475" x="660" y="-1162"/>
  </flowRegion>
  <flowPara/>
 </flowRoot>
 <path style="opacity:0.2" d="m 1,16.5 v 1.779297 0.740234 c 0,0.80005 0.6645936,1.443484 1.5,1.474609 V 20.5 H 2.5615235 10.438477 10.5 v -0.0059 c 0.835407,-0.03113 1.5,-0.67456 1.5,-1.474609 0,0.800049 0.664594,1.443484 1.5,1.474609 V 20.5 H 13.56152 21.438472 21.5 V 20.4941 C 22.335407,20.463015 23,19.81958 23,19.019531 V 18.279297 16.5 h -1.5 -8 -1.5 -1.5 -8 z"/>
 <path style="fill:#ff8915" d="m 12,16 v 1.779297 0.740234 c 0,0.80005 0.664594,1.443484 1.5,1.474609 V 20 H 13.56152 21.438472 21.5 V 19.9941 C 22.335407,19.963015 23,19.31958 23,18.519531 V 17.779297 16 h -1.5 -8 z"/>
 <path style="fill:#ff8915" d="m 1,16 v 1.779297 0.740234 c 0,0.80005 0.6645936,1.443484 1.5,1.474609 V 20 H 2.5615235 10.438477 10.5 V 19.9941 C 11.335407,19.963015 12,19.31958 12,18.519531 V 17.779297 16 h -1.5 -8 z"/>
 <path style="opacity:0.2" d="M 2.5610601,3.5 C 1.6962699,3.5 1.000067,4.160178 1.000067,4.98022 v 8.5989 3.70055 0.74011 c 0,0.820041 0.6962029,1.48022 1.5609931,1.48022 H 21.43894 c 0.86479,0 1.560993,-0.660179 1.560993,-1.48022 V 17.27967 13.57912 4.98022 C 22.999933,4.160178 22.30373,3.5 21.43894,3.5 Z"/>
 <path style="fill:#e4e4e4" d="M 2.5610601,3 C 1.6962699,3 1.000067,3.660178 1.000067,4.48022 v 8.5989 3.70055 0.74011 C 1.000067,18.339821 1.6962699,19 2.5610601,19 H 21.43894 c 0.86479,0 1.560993,-0.660179 1.560993,-1.48022 V 16.77967 13.07912 4.48022 C 22.999933,3.660178 22.30373,3 21.43894,3 Z"/>
 <path style="opacity:0.05" d="M 2.5610601,3 C 1.6962699,3 1.000067,3.660178 1.000067,4.48022 v 8.5989 3.70055 0.74011 C 1.000067,18.339821 1.6962699,19 2.5610601,19 H 12 V 3 Z"/>
 <path style="fill:#ff8915" d="M 15.999833,9.9999995 A 0.9999167,1.0000001 0 0 1 14.999916,11 0.9999167,1.0000001 0 0 1 14,9.9999995 a 0.9999167,1.0000001 0 0 1 0.999916,-0.999999 0.9999167,1.0000001 0 0 1 0.999917,0.999999 z" overflow="visible"/>
 <path style="fill:#ff8915" d="m 14,6.9999995 h 0.506957 V 7.507 H 14 Z M 17.506707,10.507 h 0.492959 V 11 h -0.492959 z m 1.999834,0 h 0.492958 V 11 H 19.506541 Z M 14,5 h 0.506957 V 5.5069995 H 14 Z"/>
 <path style="fill:#ff8915" d="m 14.506957,8.007 c 1.386885,0 2.499792,1.1134995 2.499792,2.5 h 0.999916 c 0,-1.9270005 -1.572369,-3.5000005 -3.499708,-3.5000005 z" font-weight="400" overflow="visible"/>
 <path style="fill:#ff8915" d="M 14.506957,6.0139995 A 4.4856261,4.4860002 0 0 1 19.000083,10.507 H 20 C 19.999516,7.48 17.534705,5.0139994 14.506957,5.0139994 Z" font-weight="400" overflow="visible"/>
 <path style="fill:#ff8915" d="M 14.999916,7.4999995 A 0.49995834,0.50000005 0 0 1 14.499959,8 0.49995834,0.50000005 0 0 1 14,7.4999995 a 0.49995834,0.50000005 0 0 1 0.499959,-0.5 0.49995834,0.50000005 0 0 1 0.499957,0.5 z m 0,-1.9999997 A 0.49995834,0.50000005 0 0 1 14.499959,5.999999 0.49995834,0.50000005 0 0 1 14,5.4999998 0.49995834,0.50000005 0 0 1 14.499959,5 0.49995834,0.50000005 0 0 1 14.999916,5.4999998 Z M 17.999666,10.5 A 0.49995834,0.50000005 0 0 1 17.499708,11 0.49995834,0.50000005 0 0 1 16.999749,10.5 0.49995834,0.50000005 0 0 1 17.499708,9.9999995 0.49995834,0.50000005 0 0 1 17.999666,10.5 Z m 1.999833,0 A 0.49995834,0.50000005 0 0 1 19.499541,11 0.49995834,0.50000005 0 0 1 18.999583,10.5 0.49995834,0.50000005 0 0 1 19.499541,9.9999995 0.49995834,0.50000005 0 0 1 19.999499,10.5 Z" overflow="visible"/>
 <rect style="fill:#ff8915" width="5" height="1" x="3" y="5" ry="0"/>
 <rect style="fill:#9c9891" width="6" height="1" x="3" y="7" ry="0"/>
 <rect style="fill:#9c9891" width="4" height="1" x="14" y="13" ry="0"/>
 <rect style="fill:#9c9891" width="5" height="1" x="3" y="9" ry="0"/>
 <rect style="fill:#9c9891" width="6" height="1" x="3" y="11" ry="0"/>
 <rect style="fill:#9c9891" width="6" height="1" x="3" y="13" ry="0"/>
 <rect style="fill:#9c9891" width="4" height="1" x="3" y="15" ry="0"/>
 <rect style="fill:#9c9891" width="6" height="1" x="3" y="17" ry="0"/>
 <rect style="fill:#9c9891" width="6" height="1" x="14" y="15" ry="0"/>
 <rect style="fill:#9c9891" width="6" height="1" x="14" y="17" ry="0"/>
 <path style="opacity:0.2;fill:#ffffff" d="M 2.5615235,3 C 1.6967333,3 1,3.6604268 1,4.4804687 v 0.5 C 1,4.1604267 1.6967333,3.5 2.5615235,3.5 H 21.438476 C 22.303266,3.5 23,4.1604267 23,4.9804687 v -0.5 C 23,3.6604268 22.303266,3 21.438476,3 Z"/>
</svg>

<svg xmlns="http://www.w3.org/2000/svg" width="24" height="24" version="1">
 <path style="opacity:0.2" d="M 1,16.5 V 19.02 C 1,19.82 1.6646,20.469 2.5,20.5 H 10.5 C 11.335,20.469 12,19.82 12,19.019 12,19.82 12.665,20.469 13.5,20.5 H 21.5 C 22.335,20.469 23,19.82 23,19.02 V 16.5 Z"/>
 <path style="fill:#ff8915" d="M 12,16 V 18.52 C 12,19.32 12.665,19.969 13.5,20 H 21.5 C 22.335,19.969 23,19.32 23,18.52 V 16 Z"/>
 <path style="fill:#ff8915" d="M 1,16 V 18.52 C 1,19.32 1.6646,19.969 2.5,20 H 10.5 C 11.335,19.969 12,19.32 12,18.52 V 16 Z"/>
 <path style="opacity:0.2" d="M 2.5611,3.5 C 1.6963,3.5 1.0001,4.1602 1.0001,4.9802 V 18.02 C 1.0001,18.84 1.6963,19.5 2.5611,19.5 H 21.439 C 22.304,19.5 23,18.84 23,18.02 V 4.9802 C 23,4.1602 22.304,3.5 21.439,3.5 Z"/>
 <path style="fill:#e4e4e4" d="M 2.5611,3 C 1.6963,3 1.0001,3.6602 1.0001,4.4802 V 17.52 C 1.0001,18.34 1.6963,19 2.5611,19 H 21.439 C 22.304,19 23,18.34 23,17.52 V 4.4802 C 23,3.6602 22.304,3 21.439,3 Z"/>
 <path style="opacity:0.05" d="M 2.5611,3 C 1.6963,3 1.0001,3.6602 1.0001,4.4802 V 17.52 C 1.0001,18.34 1.6963,19 2.5611,19 H 12 V 3 Z"/>
 <path style="fill:#ff8915" d="M 16,10 A 0.99992,1 0 0 1 15,11 0.99992,1 0 0 1 14,10 0.99992,1 0 0 1 15,9 0.99992,1 0 0 1 16,10 Z"/>
 <path style="fill:#ff8915" d="M 14,7 H 14.507 V 7.507 H 14 Z M 17.507,10.507 H 18 V 11 H 17.507 Z M 19.507,10.507 H 19.999 V 11 H 19.507 Z M 14,5 H 14.507 V 5.507 H 14 Z"/>
 <path style="fill:#ff8915" d="M 14.507,8.007 C 15.894,8.007 17.007,9.1205 17.007,10.507 H 18.007 C 18.007,8.58 16.434,7.007 14.507,7.007 Z"/>
 <path style="fill:#ff8915" d="M 14.507,6.014 A 4.4856,4.486 0 0 1 19,10.507 H 20 C 20,7.48 17.535,5.014 14.507,5.014 Z"/>
 <path style="fill:#ff8915" d="M 15,7.5 A 0.49996,0.5 0 0 1 14.5,8 0.49996,0.5 0 0 1 14,7.5 0.49996,0.5 0 0 1 14.5,7 0.49996,0.5 0 0 1 15,7.5 Z M 15,5.5 A 0.49996,0.5 0 0 1 14.5,6 0.49996,0.5 0 0 1 14,5.5 0.49996,0.5 0 0 1 14.5,5 0.49996,0.5 0 0 1 15,5.5 Z M 18,10.5 A 0.49996,0.5 0 0 1 17.5,11 0.49996,0.5 0 0 1 17,10.5 0.49996,0.5 0 0 1 17.5,10 0.49996,0.5 0 0 1 18,10.5 Z M 19.999,10.5 A 0.49996,0.5 0 0 1 19.5,11 0.49996,0.5 0 0 1 19,10.5 0.49996,0.5 0 0 1 19.5,10 0.49996,0.5 0 0 1 19.999,10.5 Z"/>
 <rect style="fill:#ff8915" width="5" height="1" x="3" y="5" ry="0"/>
 <rect style="fill:#9c9891" width="6" height="1" x="3" y="7" ry="0"/>
 <rect style="fill:#9c9891" width="4" height="1" x="14" y="13" ry="0"/>
 <rect style="fill:#9c9891" width="5" height="1" x="3" y="9" ry="0"/>
 <rect style="fill:#9c9891" width="6" height="1" x="3" y="11" ry="0"/>
 <rect style="fill:#9c9891" width="6" height="1" x="3" y="13" ry="0"/>
 <rect style="fill:#9c9891" width="4" height="1" x="3" y="15" ry="0"/>
 <rect style="fill:#9c9891" width="6" height="1" x="3" y="17" ry="0"/>
 <rect style="fill:#9c9891" width="6" height="1" x="14" y="15" ry="0"/>
 <rect style="fill:#9c9891" width="6" height="1" x="14" y="17" ry="0"/>
 <path style="opacity:0.2;fill:#ffffff" d="M 2.5615,3 C 1.6967,3 1,3.6604 1,4.4805 V 4.9805 C 1,4.1604 1.6967,3.5 2.5615,3.5 H 21.438 C 22.303,3.5 23,4.1604 23,4.9805 V 4.4805 C 23,3.6604 22.303,3 21.438,3 Z"/>
</svg>
